!!!OTL: WER STEHT DRAUSSEN VOR MEINEM FENSTER
!!!ARE: Europa, Mitteleuropa, Deutschland, Goettingen
!!!SCT: Z0257
!!!YEM: Copyright 1995, estate of Helmut Schaffrath.
**kern
*ICvox
*Ivox
*M3/8
*k[]
*C:
=1
{4g
16a
16b
=2
16cc
16b
8cc
8g
=3
8a
8b
8cc
=4
8.g
16f
8e}
=5
{4a
8b
=6
16cc
16b
8cc
8g
=7
8g
8e
8c
=8
4.g}
=9
{4g
16a
16b
=10
16cc
16b
8cc
8g
=11
8a
8b
8cc
=12
8.g
16f
8e}
=13
{4a
8b
=14
16cc
16b
8cc
8g
=15
8g
8e
8c
=16
4.g}
=17
{8d
8d
8e
=18
8f
8d
8r
=19
8e
8e
8f
=20
8g
8e
8r}
=21
{8a
8b
8cc
=22
4g
8e
=23
16g
16f
8e
8d
=24
4.c}
==
!!!AGN: lyrisches Lied, Romanze
!!!ONB: ESAC (Essen Associative Code) Database: ZUCCAL
!!!AMT: simple triple
!!!AIN: vox
!!!EED: Helmut Schaffrath
!!!EEV: 1.0
*-
